src/assets/icons/bell-icon.svg

<svg width="37" height="37" viewBox="0 0 37 37" version="1.1" xmlns="http://www.w3.org/2000/svg" xmlns:xlink="http://www.w3.org/1999/xlink">
<title>Bell</title>
<desc>Created using Figma</desc>
<g id="Canvas" transform="translate(-1385 267)">
<g id="Bell">
<g id="Ellipse">
<use xlink:href="#path0_fill" transform="matrix(0.946846 0.321687 -0.321687 0.946846 1405.02 -263.331)" fill="#333333"/>
<mask id="mask0_outline_ins">
<use xlink:href="#path0_fill" fill="white" transform="matrix(0.946846 0.321687 -0.321687 0.946846 1405.02 -263.331)"/>
</mask>
<g mask="url(#mask0_outline_ins)">
<use xlink:href="#path1_stroke_2x" transform="matrix(0.946846 0.321687 -0.321687 0.946846 1405.02 -263.331)" fill="#333333"/>
</g>
</g>
<g id="Vector 2">
<use xlink:href="#path2_stroke" transform="matrix(0.946846 0.321687 -0.321687 0.946846 1392.74 -262.635)" fill="#333333"/>
</g>
<g id="Vector 3">
<use xlink:href="#path3_stroke" transform="matrix(0.946846 0.321687 -0.321687 0.946846 1396.37 -239.46)" fill="#333333"/>
</g>
</g>
</g>
<defs>
<path id="path0_fill" d="M 6.9245 2.30817C 6.9245 3.58293 5.37439 4.61633 3.46225 4.61633C 1.5501 4.61633 0 3.58293 0 2.30817C 0 1.0334 1.5501 0 3.46225 0C 5.37439 0 6.9245 1.0334 6.9245 2.30817Z"/>
<path id="path1_stroke_2x" d="M 5.4245 2.30817C 5.4245 2.31158 5.42589 2.33987 5.38582 2.40302C 5.34169 2.47259 5.24921 2.57832 5.07838 2.69221C 4.73049 2.92413 4.16349 3.11633 3.46225 3.11633L 3.46225 6.11633C 4.67315 6.11633 5.83727 5.79183 6.74248 5.18836C 7.6372 4.59188 8.4245 3.60312 8.4245 2.30817L 5.4245 2.30817ZM 3.46225 3.11633C 2.76101 3.11633 2.194 2.92413 1.84612 2.69221C 1.67529 2.57832 1.58281 2.47259 1.53867 2.40302C 1.4986 2.33987 1.5 2.31158 1.5 2.30817L -1.5 2.30817C -1.5 3.60312 -0.7127 4.59188 0.182019 5.18836C 1.08722 5.79183 2.25134 6.11633 3.46225 6.11633L 3.46225 3.11633ZM 1.5 2.30817C 1.5 2.30475 1.4986 2.27646 1.53867 2.21331C 1.58281 2.14374 1.67529 2.03801 1.84612 1.92412C 2.194 1.6922 2.76101 1.5 3.46225 1.5L 3.46225 -1.5C 2.25134 -1.5 1.08722 -1.1755 0.182019 -0.57203C -0.7127 0.0244496 -1.5 1.01321 -1.5 2.30817L 1.5 2.30817ZM 3.46225 1.5C 4.16349 1.5 4.73049 1.6922 5.07838 1.92412C 5.24921 2.03801 5.34169 2.14374 5.38582 2.21331C 5.42589 2.27646 5.4245 2.30475 5.4245 2.30817L 8.4245 2.30817C 8.4245 1.01321 7.6372 0.0244496 6.74248 -0.57203C 5.83727 -1.1755 4.67315 -1.5 3.46225 -1.5L 3.46225 1.5Z"/>
<path id="path2_stroke" d="M 6.38389 14.3182L 5.95784 13.701L 6.38389 14.3182ZM 3.47508 21.3523L 3.58925 22.0936L 3.47508 21.3523ZM 1.59145 18.7981L 0.972916 18.3739L 1.59145 18.7981ZM 25.9919 21.2792L 25.8762 22.0202L 25.9919 21.2792ZM 22.4114 13.2766L 23.1577 13.2021L 22.4114 13.2766ZM 23.4243 14.7481L 23.8126 14.1064L 23.4243 14.7481ZM 14.6631 0.75C 17.5451 0.75 19.2893 1.16022 20.3394 1.78056C 21.332 2.36692 21.7706 3.18079 21.9382 4.24885C 22.1149 5.37509 21.9807 6.71893 21.8202 8.30782C 21.6639 9.85597 21.4898 11.5942 21.6651 13.351L 23.1577 13.2021C 22.9996 11.618 23.1543 10.0262 23.3126 8.45852C 23.4668 6.93163 23.6331 5.37395 23.42 4.01629C 23.1978 2.60044 22.5563 1.34803 21.1023 0.489079C 19.7058 -0.335891 17.6369 -0.75 14.6631 -0.75L 14.6631 0.75ZM 23.036 15.3897C 24.2729 16.1383 25.9161 17.4152 27.1977 19.2541L 28.4283 18.3964C 26.9959 16.3412 25.176 14.9316 23.8126 14.1064L 23.036 15.3897ZM 26.1077 20.5382C 17.6043 19.2099 11.6814 19.3295 3.36091 20.6111L 3.58925 22.0936C 11.7733 20.8331 17.5403 20.7181 25.8762 22.0202L 26.1077 20.5382ZM 2.20997 19.2223C 3.18729 17.7971 4.56132 16.4876 6.80995 14.9354L 5.95784 13.701C 3.6208 15.3141 2.08952 16.7457 0.972916 18.3739L 2.20997 19.2223ZM 7.85754 12.9731C 7.82703 12.4741 7.74198 11.8937 7.64692 11.2893C 7.55001 10.6732 7.441 10.0224 7.35039 9.33809C 7.16873 7.9662 7.07454 6.54724 7.30594 5.26669C 7.53405 4.00438 8.07084 2.91222 9.13571 2.11986C 10.216 1.31604 11.9343 0.75 14.6631 0.75L 14.6631 -0.75C 11.7467 -0.75 9.66997 -0.147385 8.24026 0.916455C 6.79516 1.99175 6.107 3.46625 5.82985 4.99995C 5.556 6.51542 5.67624 8.12182 5.86337 9.53499C 5.95716 10.2433 6.07114 10.9248 6.16513 11.5224C 6.26098 12.1317 6.33475 12.6462 6.36033 13.0646L 7.85754 12.9731ZM 6.80995 14.9354C 7.38424 14.539 7.91157 13.8569 7.85754 12.9731L 6.36033 13.0646C 6.37168 13.2502 6.26532 13.4887 5.95784 13.701L 6.80995 14.9354ZM 3.36091 20.6111C 2.86783 20.687 2.44858 20.4805 2.22458 20.1879C 2.01521 19.9143 1.97041 19.5716 2.20997 19.2223L 0.972916 18.3739C 0.334843 19.3044 0.465001 20.3569 1.03343 21.0996C 1.58722 21.8231 2.54861 22.2539 3.58925 22.0936L 3.36091 20.6111ZM 27.1977 19.2541C 27.437 19.5974 27.3886 19.9107 27.2023 20.1518C 26.998 20.4162 26.5989 20.6149 26.1077 20.5382L 25.8762 22.0202C 26.8938 22.1792 27.8418 21.7773 28.3892 21.069C 28.9545 20.3374 29.0623 19.3059 28.4283 18.3964L 27.1977 19.2541ZM 21.6651 13.351C 21.757 14.2725 22.3549 14.9775 23.036 15.3897L 23.8126 14.1064C 23.4177 13.8674 23.1906 13.5321 23.1577 13.2021L 21.6651 13.351Z"/>
<path id="path3_stroke" d="M -0.697349 0.27605C 0.0776954 2.23394 1.82677 3.74005 3.82138 3.99001C 5.89559 4.24994 7.99393 3.1322 9.36176 0.328889L 8.01368 -0.328889C 6.85792 2.03977 5.3019 2.66381 4.0079 2.50165C 2.6343 2.32952 1.30131 1.24965 0.697349 -0.27605L -0.697349 0.27605Z"/>
</defs>
</svg>

<svg xmlns="http://www.w3.org/2000/svg" xmlns:xlink="http://www.w3.org/1999/xlink" width="37" height="37"><g transform="translate(-1385 267)"><use fill="#333" transform="rotate(18.765 1499.349 4119.917)" xlink:href="#path0_fill"/><mask id="a"><use fill="#fff" transform="rotate(18.765 1499.349 4119.917)" xlink:href="#path0_fill"/></mask><g mask="url(#a)"><use fill="#333" transform="rotate(18.765 1499.349 4119.917)" xlink:href="#path1_stroke_2x"/></g></g><use fill="#333" transform="rotate(18.765 -9.338 25.604)" xlink:href="#path2_stroke"/><use fill="#333" transform="rotate(18.765 -77.65 48.176)" xlink:href="#path3_stroke"/><defs><path id="path0_fill" d="M6.925 2.308c0 1.275-1.55 2.308-3.463 2.308C1.55 4.616 0 3.583 0 2.308S1.55 0 3.462 0c1.912 0 3.462 1.033 3.462 2.308z"/><path id="path1_stroke_2x" d="M5.425 2.308c0 .004 0 .032-.04.095-.043.07-.136.175-.307.29-.348.231-.915.423-1.616.423v3c1.211 0 2.375-.324 3.28-.928.895-.596 1.683-1.585 1.683-2.88h-3zm-1.963.808c-.701 0-1.268-.192-1.616-.424a1.049 1.049 0 0 1-.307-.289c-.04-.063-.039-.091-.039-.095h-3c0 1.295.787 2.284 1.682 2.88.905.604 2.07.928 3.28.928v-3zM1.5 2.308c0-.003-.001-.032.039-.095.044-.07.136-.175.307-.289.348-.232.915-.424 1.616-.424v-3c-1.21 0-2.375.325-3.28.928C-.713.024-1.5 1.013-1.5 2.308h3zM3.462 1.5c.701 0 1.268.192 1.616.424.171.114.264.22.308.29.04.062.038.09.038.094h3c0-1.295-.787-2.284-1.682-2.88-.905-.604-2.069-.928-3.28-.928v3z"/><path id="path2_stroke" d="M6.384 14.318l-.426-.617.426.617zm-2.909 7.037l-.113-.742.113.742zm-1.884-2.557l-.618-.424.618.424zm24.447 2.564l-.118.741.117-.74zm-3.463-7.341l.739-.131-.739.13zM14.663.75c1.299 0 2.28.396 3.062 1.063.8.681 1.435 1.682 1.957 2.952 1.054 2.566 1.548 5.96 2.155 9.386l1.477-.261c-.589-3.322-1.111-6.938-2.245-9.695-.572-1.392-1.323-2.631-2.371-3.524C17.633-.237 16.304-.75 14.663-.75v1.5zm8.776 15.328c.67.23 1.304.434 1.954.867.638.425 1.321 1.093 1.99 2.278l1.306-.736c-.772-1.37-1.611-2.222-2.464-2.79-.84-.56-1.664-.82-2.3-1.038l-.486 1.42zm2.716 4.544c-8.536-1.35-14.45-1.283-22.793-.009l.227 1.483c8.2-1.253 13.958-1.318 22.331.007l.235-1.481zm-23.945-1.4c.977-1.425 2.351-2.734 4.6-4.287l-.852-1.234C3.62 15.314 2.09 16.746.973 18.374l1.237.848zm5.759-6.057c.336-1.838.926-5.021 2.039-7.739.556-1.359 1.223-2.55 2.014-3.391.781-.83 1.646-1.285 2.641-1.285v-1.5c-1.518 0-2.754.716-3.733 1.757-.97 1.03-1.72 2.41-2.31 3.851-1.18 2.883-1.794 6.215-2.127 8.038l1.476.27zm-1.16 1.77a2.757 2.757 0 0 0 1.16-1.77l-1.476-.27a1.258 1.258 0 0 1-.535.806l.852 1.234zm-3.447 5.678c-.493.075-.913-.131-1.137-.425-.21-.274-.255-.616-.015-.966l-1.237-.848c-.638.93-.508 1.983.06 2.726.554.723 1.515 1.155 2.556.996l-.227-1.483zm24.02-1.39a.833.833 0 0 1-.086.99c-.24.292-.663.484-1.141.409l-.235 1.481a2.725 2.725 0 0 0 2.533-.935c.583-.707.774-1.727.236-2.681l-1.306.736zm-5.545-5.072c.15.853.716 1.624 1.602 1.927l.485-1.419c-.304-.104-.542-.383-.61-.77l-1.477.262z"/><path id="path3_stroke" d="M-.697.276C.078 2.234 1.827 3.74 3.82 3.99c2.075.26 4.173-.858 5.54-3.661L8.015-.33C6.858 2.04 5.302 2.664 4.008 2.501 2.634 2.33 1.3 1.25.698-.275L-.698.276z"/></defs></svg>
